!!!!SEGMENT: Distler_Jahrkreis_33_Es-ist-das-Heil-uns-kommen-her_3v.krn
!!!COM: Distler, Hugo
!!!CDT: 1908-1942
!!!OPR@@DE: Der Jahrkreis
!!!OPR@EN: The Year Cycle
!!!OTL@@DE: Es ist das Heil uns kommen her
!!!OTL@EN: Salvation now has come for all
!!!OPS: 5
!!!ONM: 33
**kern	**text	**text	**kern	**text	**text	**kern	**text	**text
*part3	*part3	*part3	*part2	*part2	*part2	*part1	*part1	*part1
*staff3	*staff3	*staff3	*staff2	*staff2	*staff2	*staff1	*staff1	*staff1
*Ialto	*	*	*Isoprn	*	*	*Isoprn	*	*
*clefG2	*	*	*clefG2	*	*	*clefG2	*	*
*k[b- e- a-]	*	*	*k[b- e- a-]	*	*	*k[b- e- a-]	*	*
*MM120	*	*	*MM120	*	*	*MM120	*	*
*M4/4	*	*	*M4/4	*	*	*M4/4	*	*
*>[A,A1,A,A2,B]	*>[A,A1,A,A2,B]	*>[A,A1,A,A2,B]	*>[A,A1,A,A2,B]	*>[A,A1,A,A2,B]	*>[A,A1,A,A2,B]	*>[A,A1,A,A2,B]	*>[A,A1,A,A2,B]	*>[A,A1,A,A2,B]
*>norep[A,A2,B]	*>norep[A,A2,B]	*>norep[A,A2,B]	*>norep[A,A2,B]	*>norep[A,A2,B]	*>norep[A,A2,B]	*>norep[A,A2,B]	*>norep[A,A2,B]	*>norep[A,A2,B]
*>A	*>A	*>A	*>A	*>A	*>A	*>A	*>A	*>A
=1	=1	=1	=1	=1	=1	=1	=1	=1
4r	.	.	2r	.	.	1r	.	.
8r	.	.	.	.	.	.	.	.
8c	Es	die	.	.	.	.	.	.
4c	ist	Werk',	4r	.	.	.	.	.
4c	das	die	8r	.	.	.	.	.
.	.	.	8f	Es	die	.	.	.
=2	=2	=2	=2	=2	=2	=2	=2	=2
4c	Heil	hel-	4f	ist	Werk',	2r	.	.
4e-	uns	fen	4f	das	die	.	.	.
(8dLL	kom-	nim-	4f	Heil	hel-	4r	.	.
16c	.	.	.	.	.	.	.	.
16B-JJ)	.	.	.	.	.	.	.	.
4c	men	mer-	4a-	uns	fen	8r	.	.
*	*	*	*	*	*	*^		*	*
.	.	.	.	.	.	8b-	8b-X	Es	die
*	*	*	*	*	*	*v	*v	*	*
=3	=3	=3	=3	=3	=3	=3	=3	=3
(16B-LL	her,_	mehr,_	(8.gLLL	kom-	nim-	4b-	ist	Werk',
16c	.	.	.	.	.	.	.	.
16d	.	.	.	.	.	.	.	.
16e-	.	.	16a-	.	.	.	.	.
8fJJ),	.	.	16.b-	.	.	4b-	das	die
.	.	.	32b-	.	.	.	.	.
8f	es	die	16a-	.	.	.	.	.
.	.	.	16g	.	.	.	.	.
4f	ist	Werk',	8f	.	.	4b-	Heil	hel-
.	.	.	8e-JJJ)	.	.	.	.	.
4f	das	die	4f	men	mer-	4dd-	uns	fen
!!LO:LB:g=original
=4	=4	=4	=4	=4	=4	=4	=4	=4
4f	Heil	hel-	2.e-	her	mehr,	(8ccLL	kom-	nim-
.	.	.	.	.	.	16b-	.	.
.	.	.	.	.	.	16a-JJ	.	.
4a-	uns	fen	.	.	.	4b-	.	.
4.g	kom-	nim-	.	.	.	16a-LL	.	.
.	.	.	.	.	.	16b-	.	.
.	.	.	.	.	.	16cc	.	.
.	.	.	.	.	.	16dd-	.	.
.	.	.	4r	.	.	8.ee-	.	.
8f	men	mer-	.	.	.	.	.	.
.	.	.	.	.	.	16dd-	.	.
=5	=5	=5	=5	=5	=5	=5	=5	=5
2e-	her	mehr,	4r	.	.	8cc	.	.
.	.	.	.	.	.	8dd-JJ)	.	.
.	.	.	4e-	von	sie	4b-	men	mer-
4r	.	.	4c	Gnad'	moe-	4a-,	her	mehr,
4e-	von	sie	4B-	und	gen	4b-	von	sie
=6	=6	=6	=6	=6	=6	=6	=6	=6
*M5/4	*	*	*M5/4	*	*	*M5/4	*	*
4c	Gnad'	moe-	4c	lau-	nicht_	4g	Gnad'	moe-
4B-	und	gen	4d	ter	.	(16e-LL	und	gen
.	.	.	.	.	.	16fJJ)	.	.
.	.	.	.	.	.	(4g	lau-	nicht_
4.c	lau-	nicht	(4.e-	Gue-	be-	.	.	.
.	.	.	.	.	.	8an)	.	.
.	.	.	.	.	.	4b-	ter	be-
8B-	ter	be-	8d	.	hue-	.	.	.
*	*	*	*	*	*	*^		*	*
4An	Gue-	hue-	4e-)	.	.	4cc	4cc	Gue-	hue-
=7	=7	=7	=7	=7	=7	=7	=7	=7	=7
*>A1	*>A1	*>A1	*>A1	*>A1	*>A1	*>A1	*>A1	*>A1	*>A1
*M2/4	*	*	*M2/4	*	*	*M2/4	*M2/4	*	*
2G	te;	.	2d	te;	.	2dd	2bn	te;	.
*	*	*	*	*	*	*v	*v	*	*
=8:|!	=8	=8	=8:|!	=8	=8	=8:|!	=8	=8
*>A2	*>A2	*>A2	*>A2	*>A2	*>A2	*>A2	*>A2	*>A2
*	*	*	*	*	*	*^		*	*
*M4/4	*	*	*M4/4	*	*	*M4/4	*M4/4	*	*
2G	.	ten.	2d	.	ten.	2dd	2bn	.	ten.
4r	.	.	4r	.	.	4r	4r	.	.
4e-	Der	.	4g	Der	.	4b-	4b-	Der	.
*	*	*	*	*	*	*v	*v	*	*
!!LO:LB:g=original
=9	=9	=9	=9	=9	=9	=9	=9	=9
*>B	*>B	*>B	*>B	*>B	*>B	*>B	*>B	*>B
*M5/4	*	*	*M5/4	*	*	*M5/4	*	*
4c	Glaub'	.	2g	Glaub'	.	2ee-	Glaub'	.
4A-X	sieht	.	.	.	.	.	.	.
2e-	Je-	.	4g	sieht	.	4ee-	sieht	.
.	.	.	4a-	Je-	.	4cc	Je-	.
4f	sum	.	4b-	sum	.	4dd	sum	.
=10	=10	=10	=10	=10	=10	=10	=10	=10
*M5/8	*	*	*M5/8	*	*	*M5/8	*	*
(8.cLL	Chri-	.	(8.b-LL	Chri-	.	(8.ee-LL	Chri-	.
16d	.	.	16a-	.	.	16dd	.	.
8e-	.	.	8g	.	.	8b-	.	.
8fJJ)	.	.	8fJJ)	.	.	8ccJJ)	.	.
*	*	*	*^		*	*	*	*	*
8f	stum	.	8e-	8e-	stum	.	8cc	stum	.
=11	=11	=11	=11	=11	=11	=11	=11	=11	=11
*M4/4	*	*	*M4/4	*M4/4	*	*	*M4/4	*	*
4B-,	an,	.	2f	2d	an,	.	2b-	an,	.
4B-	der	.	.	.	.	.	.	.	.
*	*	*	*v	*v	*	*	*	*	*
4e-	hat	.	4r	.	.	2r	.	.
4B-	g'nug	.	4e-	der	.	.	.	.
=12	=12	=12	=12	=12	=12	=12	=12	=12
4c	fuer	.	(4.a-	hat_	.	4r	.	.
4G	uns	.	.	.	.	4b-	der	.
.	.	.	8g	.	.	.	.	.
(4B-	all'_	.	4e-)	.	.	4ee-	hat	.
8A-L	.	.	4f	g'nug	.	4b-	g'nug	.
8GJ	.	.	.	.	.	.	.	.
!!LO:LB:g=original
=13	=13	=13	=13	=13	=13	=13	=13	=13
4A-)	.	.	4.e-	fuer	.	4cc	fuer	.
4c	ge-	.	.	.	.	4g	uns	.
.	.	.	8e-	uns	.	.	.	.
2G,	tan,	.	4d	all'	.	4b-	all'	.
.	.	.	4c	ge-	.	4a-	ge-	.
=||14	=14	=14	=||14	=14	=14	=||14	=14	=14
*M3/4	*	*	*M3/4	*	*	*M3/4	*	*
4c	er	.	2e-	tan,	.	2g	tan,	.
4B-	ist	.	.	.	.	.	.	.
4d-	der	.	4r	.	.	4r	.	.
=15	=15	=15	=15	=15	=15	=15	=15	=15
2c	Mitt-	.	4g	er	.	4g	er	.
.	.	.	4f	ist	.	4a-	ist	.
4B-	ler	.	4a-	der	.	4b-	der	.
=16	=16	=16	=16	=16	=16	=16	=16	=16
(4.f	wor-	.	2g	Mitt-	.	2cc	Mitt-	.
8e-	.	.	.	.	.	.	.	.
4c	.	.	4f	ler	.	[4b-	ler_	.
=17	=17	=17	=17	=17	=17	=17	=17	=17
2e-	.	.	(4e-	wor-	.	4b-]	.	.
.	.	.	2f)	.	.	2a-	wor-	.
4c)	.	.	.	.	.	.	.	.
=18	=18	=18	=18	=18	=18	=18	=18	=18
2e-	den.	.	2g	den.	.	2b-	den.	.
4r	.	.	4r	.	.	4r	.	.
!!LO:LB:g=original
=||19	=19	=19	=||19	=19	=19	=||19	=19	=19
*	*	*	*M4/4	*	*	*M4/4	*	*
4r	.	.	4r	.	.	8r	.	.
.	.	.	.	.	.	8b-	Sei	.
=20	=20	=20	=20	=20	=20	=20	=20	=20
1r	.	.	4r	.	.	4b-	Lob	.
.	.	.	8r	.	.	4b-	und	.
.	.	.	8e-	Sei	.	.	.	.
.	.	.	4e-	Lob	.	4b-	Ehr	.
.	.	.	4d-	und	.	4dd-	mit	.
=21	=21	=21	=21	=21	=21	=21	=21	=21
*	*	*	*M5/4	*	*	*	*	*
1r	.	.	4e-	Ehr	.	4cc	ho-	.
.	.	.	8g-	mit	.	4b-	hem	.
.	.	.	4f	ho-	.	.	.	.
.	.	.	.	.	.	4a-,	Preis	.
.	.	.	8e-	hem	.	.	.	.
.	.	.	4d-,	Preis	.	4b-	um	.
=-	=-	=-	=-	=-	=-	=22	=22	=22
*	*	*	*	*	*	*M5/4	*	*
4r	.	.	4e-	um	.	4g	gro-	.
=22	=22	=22	=22	=22	=22	=-	=-	=-
*	*	*	*M3/4	*	*	*	*	*
2.r	.	.	4c	gro-	.	4e-	sser	.
.	.	.	4c,	sser,	.	4g	Gut-	.
!!LO:LB:g=original
.	.	.	4f	um	.	8an	tat	.
=23	=23	=23	=23	=23	=23	=-	=-	=-
.	.	.	.	.	.	(4b-	wil-	.
4r	.	.	4dn	gro-	.	.	.	.
.	.	.	.	.	.	8cc)	.	.
=-	=-	=-	=-	=-	=-	=23	=23	=23
*	*	*	*	*	*	*M3/4	*	*
4r	.	.	8d	sser	.	4b-,	len	.
.	.	.	4gn	Gut-	.	.	.	.
4r	.	.	.	.	.	2b-	.	.
.	.	.	8e-	tat	.	.	.	.
=24	=24	=24	=24	=24	=24	=-	=-	=-
*	*	*	*M5/4	*	*	*	*	*
4r	.	.	4f	wil-	.	.	.	.
=-	=-	=-	=-	=-	=-	=24	=24	=24
*	*	*	*	*	*	*M4/4	*	*
2.r	.	.	4B-	len	.	4b-	Va-	.
.	.	.	8r	.	.	4b-	ter,	.
.	.	.	8e-	Gott	.	.	.	.
.	.	.	4e-	Va-	.	4b-	Sohn	.
4r	.	.	4d-	ter,	.	4dd-	und	.
=25	=25	=25	=25	=25	=25	=25	=25	=25
*	*	*	*M3/4	*	*	*M4/4	*	*
2.r	.	.	4e-	Sohn	.	4cc	Heil'-	.
.	.	.	8g-	und	.	4b-	gem	.
.	.	.	4f	Heil'-	.	.	.	.
.	.	.	.	.	.	4a-X,	Geist,	.
.	.	.	8e-	gem	.	.	.	.
!!LO:LB:g=original
=26	=26	=26	=26	=26	=26	=-	=-	=-
*	*	*	*M4/4	*	*	*	*	*
1r	.	.	4d-,	Geist,	.	4b-	der	.
=-	=-	=-	=-	=-	=-	=26	=26	=26
.	.	.	4e-	der	.	4g,	woll',	.
.	.	.	4c,	woll',	.	4cc	der	.
.	.	.	4f	der	.	4an,	woll',	.
=27	=27	=27	=27	=27	=27	=-	=-	=-
*	*	*	*M2/4	*	*	*	*	*
2r	.	.	4dn,	woll',	.	8dd	der	.
.	.	.	.	.	.	[8dd	woll'_	.
=-	=-	=-	=-	=-	=-	=27	=27	=27
.	.	.	4g	der	.	8dd]	.	.
.	.	.	.	.	.	8dd	mit	.
=28	=28	=28	=28	=28	=28	=-	=-	=-
*	*	*	*M3/4	*	*	*	*	*
2.r	.	.	8g	woll'	.	2ee-	Gnad'	.
.	.	.	8an	mit	.	.	.	.
.	.	.	4b-	Gnad'	.	.	.	.
.	.	.	4b-	er-	.	4dd	er-	.
=29	=29	=29	=29	=29	=29	=28	=28	=28
*	*	*	*M4/4	*	*	*	*	*
1r	.	.	(4b-	fuel-	.	2cc	fuel-	.
.	.	.	4an)	.	.	.	.	.
.	.	.	4b-,	len,	.	2b-	len,	.
.	.	.	4B-	was	.	.	.	.
!!LO:LB:g=original
=||30	=30	=30	=||30	=30	=30	=||29	=29	=29
1r	.	.	4e-	er	.	4r	.	.
.	.	.	4d	in	.	4b-	was	.
.	.	.	4c	uns	.	4ee-	er	.
.	.	.	4d	an-	.	4dd	in	.
=31	=31	=31	=31	=31	=31	=30	=30	=30
1r	.	.	8e-	fan-	.	4cc	uns	.
.	.	.	8f	gen	.	.	.	.
.	.	.	4.B-,	hat,	.	4dd	an-	.
.	.	.	.	.	.	4ee-	fan-	.
.	.	.	8B-	zu	.	.	.	.
.	.	.	4e-	Eh-	.	4cc	gen	.
=32	=32	=32	=32	=32	=32	=31	=31	=31
1r	.	.	4d	ren	.	8b-,	hat,	.
.	.	.	.	.	.	8b-	zu	.
.	.	.	8c	sei-	.	2ee-	Eh-	.
.	.	.	8G	ner	.	.	.	.
.	.	.	4B-	Ma-	.	.	.	.
.	.	.	4A-	je-	.	8b-,	ren,	.
.	.	.	.	.	.	8b-	zu	.
!!LO:LB:g=original
=33	=33	=33	=33	=33	=33	=32	=32	=32
*	*	*	*M2/4	*	*	*	*	*
2r	.	.	4.G,	staet,	.	4ee-	Eh-	.
.	.	.	.	.	.	4b-	ren	.
.	.	.	8d	dass	.	.	.	.
=34	=34	=34	=34	=34	=34	=-	=-	=-
*	*	*	*M4/4	*	*	*	*	*
1r	.	.	4c	hei-	.	4cc	sei-	.
.	.	.	4e-	lig	.	4g	ner	.
=-	=-	=-	=-	=-	=-	=33	=33	=33
*	*	*	*	*	*	*M2/4	*	*
.	.	.	4d	werd'	.	4b-	Ma-	.
.	.	.	4c	sein	.	4a-	je-	.
=35	=35	=35	=35	=35	=35	=34	=34	=34
*	*	*	*	*	*	*M4/4	*	*
1r	.	.	(2B-	Na-	.	8g,	staet,	.
.	.	.	.	.	.	8g	dass	.
.	.	.	.	.	.	4f	hei-	.
.	.	.	4c	.	.	8a-	lig	.
.	.	.	.	.	.	4g	werd'	.
.	.	.	4A-	.	.	.	.	.
.	.	.	.	.	.	8f	sein	.
=36	=36	=36	=36	=36	=36	=35	=35	=35
1r	.	.	1B-)	.	.	(4e-	Na-	.
.	.	.	.	.	.	8dL	.	.
.	.	.	.	.	.	8cJ	.	.
.	.	.	.	.	.	2d)	.	.
=37	=37	=37	=37	=37	=37	=36	=36	=36
*	*	*	*^		*	*	*	*	*
2.r	.	.	2.e-	2.E-N	me.	.	2.e-	me.	.
*	*	*	*v	*v	*	*	*	*	*
!!LO:LB:g=original
=||38	=38	=38	=||38	=38	=38	=||37	=37	=37
*M4/4	*	*	*M4/4	*	*	*M4/4	*	*
8r	.	.	8r	.	.	8r	.	.
*	*	*	*^		*	*	*	*	*
8B-	Sein	das	8b-	8b-	Sein	das	8b-	Sein	das
*	*	*	*v	*v	*	*	*	*	*
=39	=39	=39	=39	=39	=39	=38	=38	=38
4.e-	Reich	taeg-	4a-	Reich	taeg-	4b-	Reich	taeg-
.	.	.	4g	zu-	lich'	4b-	zu-	lich'
8e-	zu-	lich'	.	.	.	.	.	.
4.B-	komm',	Brot	4.f	komm',	Brot	4b-	komm',	Brot
.	.	.	.	.	.	4dd-	sein	noch
8B-	sein	noch	8b-	sein	noch	.	.	.
=40	=40	=40	=40	=40	=40	=39	=39	=39
4.f	Will'	heut'	4a-	Will'	heut'	4cc	Will'	heut'
.	.	.	4g	auf	uns	4b-	auf	uns
8f	auf	uns	.	.	.	.	.	.
4c,	Erd'	werd',	4f,	Erd'	werd',	4a-,	Erd'	werd',
[4e-	g'scheh'_	woll'_	[4g	g'scheh'_	woll'_	[4b-	g'scheh'_	woll'_
=41	=41	=41	=41	=41	=41	=40	=40	=40
*M3/4	*	*	*M3/4	*	*	*M3/4	*	*
4e-]	.	.	4g]	.	.	4b-]	.	.
4d	wie	uns-	(4.g	wie_	uns-	4g	wie	uns-
4c	im	rer	.	.	.	4e-	im	rer
.	.	.	8f)	.	.	.	.	.
!!LO:LB:g=original
=42	=42	=42	=42	=42	=42	=41	=41	=41
*M4/4	*	*	*M4/4	*	*	*M4/4	*	*
(4.d	Him-	Schuld_	4e-	im	rer	(8.gLL	Him-	Schuld_
.	.	.	.	.	.	16an	.	.
.	.	.	4f	Him-	Schuld	8b-	.	.
8e-	.	.	.	.	.	16a	.	.
.	.	.	.	.	.	16g	.	.
4f)	.	.	4f	mels-	ver-	16a	.	.
.	.	.	.	.	.	16b-	.	.
.	.	.	.	.	.	8.cc	.	.
*	*	*	*^		*	*	*	*	*
4f	mels-	ver-	([4f	([4f	thro-	scho-	.	.	.
.	.	.	.	.	.	.	16b-JJ)	.	.
.	.	.	.	.	.	.	8a	mels-	ver-
=43	=43	=43	=43	=43	=43	=42	=42	=42	=42
2d	thro-	scho-	4f]	4f]	.	.	2b-	thro-	scho-
.	.	.	4g)	4e-)	.	.	.	.	.
4B-	ne;	nen,	4f	4d	ne;	nen,	4b-	ne;	nen,
*	*	*	*v	*v	*	*	*	*	*
=44:|!	=44	=44	=44:|!	=44	=44	=43:|!	=43	=43
[4B-	wie_	.	4B-	wie	.	4r	.	.
=45	=45	=45	=45	=45	=45	=44	=44	=44
8B-]	.	.	4e-	wir	.	1r	.	.
8B-	wir	.	.	.	.	.	.	.
4B-	auch	.	4d	auch	.	.	.	.
4A-	un-	.	4c	un-	.	.	.	.
4G	sern	.	4d	sern	.	.	.	.
!!LO:LB:g=original
=46	=46	=46	=46	=46	=46	=45	=45	=45
4c	Schuld-	.	4e-	Schuld-	.	4r	.	.
*	*	*	*^		*	*	*	*	*
4c	nern	.	4e-	4e-	nern	.	8b-	lass	.
.	.	.	.	.	.	.	8b-	uns	.
2G	tun;	.	4e-,	4B-	tun;	.	4ee-,	nicht,	.
.	.	.	8B-	8B-	lass	.	8b-	lass	.
.	.	.	8B-	8B-	uns	.	8b-	uns	.
*	*	*	*v	*v	*	*	*	*	*
=47	=47	=47	=47	=47	=47	=46	=46	=46
*M6/4	*	*	*M6/4	*	*	*M6/4	*	*
4r	.	.	4e-	nicht	.	8.cc	nicht	.
.	.	.	.	.	.	16cc	in	.
8B-	lass	.	8e-	in	.	4b-	Ver-	.
8B-	uns	.	8d	Ver-	.	.	.	.
4e-	nicht	.	4c	su-	.	4a-X	su-	.
8e-	in	.	4d	chung	.	4a-	chung	.
8d	Ver-	.	.	.	.	.	.	.
4c	su-	.	2en,	steh'n,	.	2g,	steh'n,	.
4c	chung	.	.	.	.	.	.	.
=48	=48	=48	=48	=48	=48	=47	=47	=47
*M4/4	*	*	*M4/4	*	*	*M4/4	*	*
*^		*	*	*	*	*	*	*	*
[1d	[1G	steh'n,_	.	2d	loes'	.	2g	loes'	.
.	.	.	.	4d	uns	.	4f	uns	.
.	.	.	.	4c	vom	.	4a-	vom	.
!!LO:LB:g=original
=49	=49	=49	=49	=49	=49	=49	=48	=48	=48
*M5/4	*M5/4	*	*	*M5/4	*	*	*M5/4	*	*
1d]	1G]	.	.	4e-X	Ue-	.	4g	Ue-	.
*v	*v	*	*	*	*	*	*	*	*
.	.	.	8d,	bel,	.	8g,	bel,	.
.	.	.	8d	loes'	.	8g	loes'	.
.	.	.	8d	uns	.	8f	uns	.
.	.	.	8c	vom	.	8a-	vom	.
.	.	.	4e-	Ue-	.	4g	Ue-	.
4r	.	.	4d,	bel!	.	4f,	bel!	.
=50	=50	=50	=50	=50	=50	=49	=49	=49
*M4/4	*	*	*M4/4	*	*	*M4/4	*	*
4r	.	.	(2c	A-	.	(4.e-	A-	.
4G	loes'	.	.	.	.	.	.	.
.	.	.	.	.	.	8f	.	.
4F	uns	.	4.d-	.	.	4a-	.	.
4A-	vom	.	.	.	.	8gL	.	.
.	.	.	8cL	.	.	8f	.	.
=51	=51	=51	=51	=51	=51	=50	=50	=50
*M5/4	*	*	*M5/4	*	*	*M5/4	*	*
(4.G	Ue-	.	8d-	.	.	8g	.	.
.	.	.	8e-J	.	.	8a-J	.	.
.	.	.	4.f	.	.	4.b-	.	.
8F)	.	.	.	.	.	.	.	.
4E-,	bel!	.	.	.	.	.	.	.
*	*	*	*	*	*	*^		*	*
.	.	.	8e-	.	.	8ccL	8ccL	.	.
2F	A-	.	4d-	.	.	8b-	8b-	.	.
.	.	.	.	.	.	8cc	8cc	.	.
.	.	.	8e-L	.	.	8b-	8b-	.	.
.	.	.	8fJ	.	.	8ccJ	8a-J	.	.
=52	=52	=52	=52	=52	=52	=52	=51	=51	=51
1E-	men!	.	4g	.	.	4ee-	4b-	.	.
.	.	.	4a-)	.	.	4ff)	4cc	.	.
.	.	.	2g	men!	.	2ee-	2b-	men!	.
*	*	*	*	*	*	*v	*v	*	*
==	==	==	==	==	==	==	==	==
*-	*-	*-	*-	*-	*-	*-	*-	*-
!!!RDF**kern: N = cue size
!!!YOR: Bärenreiter-Ausgabe 676
!!!YOY: 1933
!!!EFL: 33/52
!!!URL-github: https://github.com/LucasHofmann/distler/blob/main/Jahrkreis/Distler_Jahrkreis_33_Es-ist-das-Heil-uns-kommen-her.krn
!!!URL-pdf: https://imslp.eu/files/imglnks/euimg/7/7d/IMSLP834545-PMLP518834-5-jahrkreis-EA--original-paper-600dpi.pdf#page=62 First edition, Kassel: Bärenreiter, 1933. Plate BA 676.
!!!URL-imslp: https://imslp.org/wiki/Der_Jahrkreis,_Op.5_(Distler,_Hugo)#IMSLP834545
!!!system-decoration: [(s1,s2,s3)]
!!!ENC: Lucas Hofmann
!!!END: 2023/11/12
!!!title: @{OPR@@DE}, Op. @{OPS}, Nr. @{ONM}. <i>@{OTL@@DE}</i>